src/images/video-btn.svg

<svg width="167" height="55" viewBox="0 0 167 55" fill="none" xmlns="http://www.w3.org/2000/svg">
<g clip-path="url(#clip0)">
<path fill-rule="evenodd" clip-rule="evenodd" d="M1.85119 0.265015H165.205C166.215 0.265015 167 0.994272 167 1.89182V53.1081C167 54.0057 166.215 54.735 165.205 54.735H1.85119C0.841451 54.735 0 54.0057 0 53.1081V1.89182C0 0.994272 0.841451 0.265015 1.85119 0.265015V0.265015Z" fill="#003067"/>
<path d="M71.1304 14.0087C69.728 12.8307 68.3256 12.7185 67.6524 12.7185C64.3427 12.7185 62.3232 15.0746 62.3232 18.1038C62.3232 21.133 64.4549 23.3769 67.5402 23.3769C69.3353 23.3769 70.5695 22.5915 71.2426 21.9745V20.6281C70.4573 21.5257 69.2231 22.4793 67.5963 22.4793C65.5769 22.4793 63.3891 21.0208 63.3891 18.1038C63.3891 15.5794 65.1281 13.6722 67.6524 13.6722C69.2792 13.6722 70.4573 14.5697 71.1304 15.3551V14.0087Z" fill="white"/>
<path d="M72.8135 23.1525H73.8793L75.5061 15.1867L79.2646 23.7695L83.0792 15.1867L84.706 23.1525H85.7718L83.3597 12.3258L79.2646 21.5257L75.2256 12.3258L72.8135 23.1525Z" fill="white"/>
<path d="M92.8399 12.7185C89.8107 12.7185 87.5107 15.0185 87.5107 18.0477C87.5107 21.0769 89.8107 23.3769 92.8399 23.3769C95.8692 23.3769 98.1691 21.0769 98.1691 18.0477C98.1691 15.0185 95.8692 12.7185 92.8399 12.7185ZM92.8399 22.4793C90.3717 22.4793 88.5766 20.516 88.5766 18.0477C88.5766 15.5794 90.3717 13.6722 92.8399 13.6722C95.3082 13.6722 97.1594 15.5794 97.1594 18.0477C97.1594 20.516 95.3082 22.4793 92.8399 22.4793Z" fill="white"/>
<path d="M102.545 23.1525H103.555V13.8965H107.089V12.9429H99.0107V13.8965H102.545V23.1525Z" fill="white"/>
<path d="M110.118 21.3013C110.399 21.8062 111.521 23.3769 114.045 23.3769C117.13 23.3769 119.038 20.9647 119.038 17.9355C119.038 15.0185 117.186 12.7185 114.101 12.7185C112.474 12.7185 111.072 13.3917 110.118 14.738V12.9429H109.108V28.8744H110.118V21.3013ZM114.045 22.4793C111.464 22.4793 110.062 20.4599 110.062 17.9355C110.062 15.0746 112.025 13.6722 114.045 13.6722C116.12 13.6722 117.972 15.1868 117.972 17.9355C117.972 20.4599 116.569 22.4793 114.045 22.4793Z" fill="white"/>
<path d="M131.098 18.1599C131.098 14.9063 129.023 12.7185 126.274 12.7185C123.806 12.7185 121.337 14.5136 121.337 18.1038C121.337 21.0769 123.189 23.3769 126.33 23.3769C128.854 23.3769 130.201 21.8062 130.818 20.6281L129.976 20.1233C129.303 21.4696 128.069 22.4793 126.442 22.4793C124.311 22.4793 122.403 20.7403 122.403 18.1599H131.098ZM122.459 17.2062C122.74 15.2429 124.198 13.6722 126.274 13.6722C128.293 13.6722 129.808 15.1868 130.032 17.2062H122.459Z" fill="white"/>
<path d="M135.978 23.1525H136.988V13.8965H140.522V12.9429H132.444V13.8965H135.978V23.1525Z" fill="white"/>
<path d="M142.542 12.9429V23.1525H145.908C146.693 23.1525 147.647 23.0403 148.376 22.3671C148.993 21.8062 149.274 20.9647 149.274 20.1794C149.274 19.4501 149.049 18.6647 148.544 18.1599C147.815 17.2623 146.749 17.2062 145.964 17.2062H143.552V12.9429H142.542ZM143.552 22.1988V18.1599H145.908C146.469 18.1599 147.086 18.2721 147.535 18.6086C147.927 18.8891 148.208 19.4501 148.208 20.1794C148.208 20.8525 147.927 21.3574 147.535 21.694C147.03 22.1427 146.413 22.1988 145.908 22.1988H143.552Z" fill="white"/>
<path d="M62.9966 34.0914V44.2449H66.8673C67.4843 44.2449 68.5502 44.1888 69.3355 43.5717C69.8404 43.179 70.3453 42.5059 70.3453 41.3839C70.3453 40.3181 69.9526 39.701 69.5038 39.3084C68.9989 38.9157 68.438 38.7474 68.2697 38.7474C68.9989 38.2425 69.3916 37.5133 69.3916 36.6157C69.3916 35.5499 68.8306 34.9889 68.4941 34.6523C67.7648 34.0914 66.8673 34.0914 66.3063 34.0914H62.9966ZM64.0063 38.523V35.045H66.3063C66.6429 35.045 67.2599 35.045 67.7648 35.4377C68.0453 35.6621 68.3819 36.0548 68.3819 36.7279C68.3819 37.4572 68.0453 37.8498 67.7648 38.0742C67.2599 38.4669 66.699 38.523 66.3063 38.523H64.0063ZM64.0063 43.2912V39.4767H66.8673C67.4282 39.4767 68.1014 39.5328 68.6624 39.9254C69.055 40.262 69.3355 40.7108 69.3355 41.3278C69.3355 42.1693 68.9428 42.6181 68.6063 42.8425C68.0453 43.2912 67.2038 43.2912 66.8673 43.2912H64.0063Z" fill="white"/>
<path d="M73.3184 34.0914V44.8619L80.5548 36.1669V44.2449H81.5646V33.4743L74.3281 42.2254V34.0914H73.3184Z" fill="white"/>
<path d="M85.8278 34.0914V39.1962C85.8278 40.262 85.7717 41.2157 85.4351 41.9449C85.1546 42.562 84.4815 43.2351 83.5278 43.2912V46.9936H84.4815V44.2449H93.1204V46.9936H94.0179V43.2912H92.5594V34.0914H85.8278ZM91.5497 43.2912H85.5473C86.2205 42.7303 86.8375 41.7766 86.8375 39.5328V35.045H91.5497V43.2912Z" fill="white"/>
<path d="M105.237 39.3083C105.237 36.0547 103.162 33.8669 100.413 33.8669C97.9448 33.8669 95.4766 35.662 95.4766 39.1961C95.4766 42.1693 97.3278 44.5253 100.525 44.5253C103.05 44.5253 104.396 42.8985 104.957 41.7766L104.115 41.2717C103.498 42.618 102.208 43.5717 100.581 43.5717C98.4497 43.5717 96.5424 41.8888 96.5424 39.3083H105.237ZM96.5985 38.3547C96.879 36.3913 98.3375 34.8206 100.413 34.8206C102.433 34.8206 103.947 36.3352 104.228 38.3547H96.5985Z" fill="white"/>
<path d="M112.923 33.8669C109.894 33.8669 107.538 36.1669 107.538 39.1961C107.538 42.2254 109.894 44.5253 112.923 44.5253C115.896 44.5253 118.252 42.2254 118.252 39.1961C118.252 36.1669 115.896 33.8669 112.923 33.8669ZM112.923 43.5717C110.455 43.5717 108.603 41.6644 108.603 39.1961C108.603 36.7279 110.455 34.8206 112.923 34.8206C115.335 34.8206 117.186 36.7279 117.186 39.1961C117.186 41.6644 115.335 43.5717 112.923 43.5717Z" fill="white"/>
<path fill-rule="evenodd" clip-rule="evenodd" d="M18.2314 40.6546C18.7363 40.5425 28.2167 34.8767 29.3947 34.2035L40.6701 27.528L40.0531 27.0231C39.8287 26.9109 39.6604 26.7988 39.3799 26.6305C38.875 26.35 38.4263 26.1256 37.9214 25.789C36.9678 25.228 36.1263 24.7232 35.1727 24.1622C33.2654 23.0964 31.4703 21.9744 29.5069 20.8525C28.0484 20.011 18.8485 14.4575 18.2314 14.3453V40.6546Z" fill="#F0F0F0"/>
</g>
<defs>
<clipPath id="clip0">
<rect width="167" height="55" fill="white"/>
</clipPath>
</defs>
</svg>

<svg xmlns="http://www.w3.org/2000/svg" width="167" height="55" fill="none" viewBox="0 0 167 55">
	<g clip-path="url(#video-btn-a)">
		<path fill="#003067" fill-rule="evenodd" d="M1.851.265h163.354c1.01 0 1.795.73 1.795 1.627v51.216c0 .898-.785 1.627-1.795 1.627H1.851c-1.01 0-1.851-.73-1.851-1.627V1.892C0 .994.841.265 1.851.265z" clip-rule="evenodd"/>
		<path fill="#fff" d="M71.13 14.009c-1.402-1.178-2.804-1.29-3.478-1.29-3.31 0-5.329 2.356-5.329 5.385s2.132 5.273 5.217 5.273c1.795 0 3.03-.785 3.703-1.402v-1.347c-.786.898-2.02 1.851-3.647 1.851-2.02 0-4.207-1.458-4.207-4.375 0-2.525 1.74-4.432 4.263-4.432 1.627 0 2.805.898 3.478 1.683V14.01zM72.814 23.152h1.065l1.627-7.965 3.759 8.583 3.814-8.583 1.627 7.966h1.066L83.36 12.325l-4.095 9.2-4.04-9.2-2.411 10.826zM92.84 12.719c-3.03 0-5.33 2.3-5.33 5.329s2.3 5.329 5.33 5.329c3.03 0 5.33-2.3 5.33-5.33 0-3.029-2.3-5.329-5.33-5.329zm0 9.76c-2.468 0-4.263-1.963-4.263-4.431 0-2.469 1.795-4.376 4.263-4.376s4.32 1.907 4.32 4.376c0 2.468-1.852 4.431-4.32 4.431zM102.545 23.152h1.01v-9.256h3.534v-.953h-8.078v.954h3.534v9.255zM110.118 21.301c.281.505 1.403 2.076 3.927 2.076 3.085 0 4.993-2.412 4.993-5.441 0-2.918-1.852-5.217-4.937-5.217-1.627 0-3.029.673-3.983 2.019v-1.795h-1.01v15.931h1.01v-7.573zm3.927 1.178c-2.581 0-3.983-2.02-3.983-4.543 0-2.861 1.963-4.264 3.983-4.264 2.075 0 3.927 1.515 3.927 4.264 0 2.524-1.403 4.543-3.927 4.543zM131.098 18.16c0-3.254-2.075-5.441-4.824-5.441-2.468 0-4.937 1.795-4.937 5.385 0 2.973 1.852 5.273 4.993 5.273 2.524 0 3.871-1.57 4.488-2.749l-.842-.505c-.673 1.347-1.907 2.356-3.534 2.356-2.131 0-4.039-1.739-4.039-4.32h8.695zm-8.639-.954c.281-1.963 1.739-3.534 3.815-3.534 2.019 0 3.534 1.515 3.758 3.534h-7.573zM135.978 23.152h1.01v-9.256h3.534v-.953h-8.078v.954h3.534v9.255zM142.542 12.943v10.21h3.366c.785 0 1.739-.113 2.468-.786.617-.56.898-1.402.898-2.188 0-.729-.225-1.514-.73-2.02-.729-.897-1.795-.953-2.58-.953h-2.412v-4.263h-1.01zm1.01 9.256v-4.04h2.356c.561 0 1.178.113 1.627.45.392.28.673.841.673 1.57 0 .674-.281 1.178-.673 1.515-.505.449-1.122.505-1.627.505h-2.356zM62.997 34.091v10.154h3.87c.617 0 1.683-.056 2.468-.673.505-.393 1.01-1.066 1.01-2.188 0-1.066-.392-1.683-.841-2.076-.505-.392-1.066-.56-1.234-.56.729-.505 1.122-1.235 1.122-2.132 0-1.066-.561-1.627-.898-1.964-.73-.56-1.627-.56-2.188-.56h-3.31zm1.01 4.432v-3.478h2.3c.336 0 .953 0 1.458.393.28.224.617.617.617 1.29 0 .73-.337 1.122-.617 1.346-.505.393-1.066.449-1.459.449h-2.3zm0 4.768v-3.814h2.86c.561 0 1.234.056 1.795.448.393.337.673.786.673 1.403 0 .841-.392 1.29-.729 1.514-.56.45-1.402.45-1.739.45h-2.86zM73.318 34.091v10.77l7.237-8.694v8.078h1.01v-10.77l-7.237 8.75v-8.134h-1.01zM85.828 34.091v5.105c0 1.066-.056 2.02-.393 2.749-.28.617-.954 1.29-1.907 1.346v3.703h.953v-2.75h8.64v2.75h.897V43.29h-1.459v-9.2h-6.731zm5.722 9.2h-6.003c.674-.56 1.29-1.514 1.29-3.758v-4.488h4.713v8.246zM105.237 39.308c0-3.253-2.075-5.441-4.824-5.441-2.468 0-4.936 1.795-4.936 5.33 0 2.972 1.85 5.328 5.048 5.328 2.525 0 3.871-1.627 4.432-2.748l-.842-.505c-.617 1.346-1.907 2.3-3.534 2.3-2.131 0-4.039-1.683-4.039-4.264h8.695zm-8.638-.953c.28-1.964 1.739-3.534 3.814-3.534 2.02 0 3.534 1.514 3.815 3.534h-7.63zM112.923 33.867c-3.029 0-5.385 2.3-5.385 5.33 0 3.028 2.356 5.328 5.385 5.328 2.973 0 5.329-2.3 5.329-5.329 0-3.03-2.356-5.33-5.329-5.33zm0 9.705c-2.468 0-4.32-1.908-4.32-4.376 0-2.468 1.852-4.375 4.32-4.375 2.412 0 4.263 1.907 4.263 4.375s-1.851 4.376-4.263 4.376z"/>
		<path fill="#F0F0F0" fill-rule="evenodd" d="M18.231 40.655c.505-.113 9.986-5.778 11.164-6.452l11.275-6.675-.617-.505c-.224-.112-.393-.224-.673-.392-.505-.281-.954-.505-1.459-.842-.953-.561-1.795-1.066-2.748-1.627-1.908-1.066-3.703-2.188-5.666-3.31-1.459-.841-10.659-6.395-11.276-6.507v26.31z" clip-rule="evenodd"/>
	</g>
	<defs>
		<clipPath id="video-btn-a">
			<path fill="#fff" d="M0 0h167v55H0z"/>
		</clipPath>
	</defs>
</svg>
